src/images_karasa_jaga_svg/cmd/32/basicshapes.cross.svg

<svg height="32" viewBox="0 0 32 32" width="32" xmlns="http://www.w3.org/2000/svg" xmlns:xlink="http://www.w3.org/1999/xlink"><linearGradient id="a" gradientUnits="userSpaceOnUse" x1="67.661018" x2="68.474579" y1="128" y2="1.084746"><stop offset="0" stop-color="#fff"/><stop offset=".46428573" stop-color="#fff"/><stop offset=".78125" stop-color="#f1f1f1"/><stop offset=".90625" stop-color="#eaeaea"/><stop offset="1" stop-color="#dfdfdf"/></linearGradient><linearGradient id="b" gradientUnits="userSpaceOnUse" x1="4.011719" x2="123.98828" y1="64" y2="64"><stop offset="0" stop-color="#7c9fcf"/><stop offset=".5" stop-color="#7c9ece"/><stop offset="1" stop-color="#7b9dcf"/></linearGradient><g transform="scale(.25)"><path d="m52 4.0117188a3.9879931 3.9879931 0 0 0 -3.988281 3.9882812v40.011719h-40.011719a3.9879931 3.9879931 0 0 0 -3.9882812 3.988281v24a3.9879931 3.9879931 0 0 0 3.9882812 3.988281h40.011719v40.011719a3.9879931 3.9879931 0 0 0 3.988281 3.98828h24a3.9879931 3.9879931 0 0 0 3.988281-3.98828v-40.011719h40.011719a3.9879931 3.9879931 0 0 0 3.98828-3.988281v-24a3.9879931 3.9879931 0 0 0 -3.98828-3.988281h-40.011719v-40.011719a3.9879931 3.9879931 0 0 0 -3.988281-3.9882812z" fill="url(#b)"/><path d="m52 8v44h-44v24h44v44h24v-44h44v-24h-44v-44z" fill="url(#a)"/></g></svg>

<?xml version="1.0" encoding="UTF-8" standalone="no"?>
<svg
   xmlns:dc="http://purl.org/dc/elements/1.1/"
   xmlns:cc="http://creativecommons.org/ns#"
   xmlns:rdf="http://www.w3.org/1999/02/22-rdf-syntax-ns#"
   xmlns:svg="http://www.w3.org/2000/svg"
   xmlns="http://www.w3.org/2000/svg"
   xmlns:xlink="http://www.w3.org/1999/xlink"
   xmlns:sodipodi="http://sodipodi.sourceforge.net/DTD/sodipodi-0.dtd"
   xmlns:inkscape="http://www.inkscape.org/namespaces/inkscape"
   height="128"
   viewBox="0 0 128 128"
   width="128"
   version="1.1"
   id="svg17"
   sodipodi:docname="basicshapes.cross.svg"
   inkscape:version="0.92.3 (unknown)"
   inkscape:export-filename="/home/rizmut/Dokumen/Rizmut/Github/libreoffice-style-karasa-jaga/build/images_karasa_jaga/cmd/32/basicshapes.cross.png"
   inkscape:export-xdpi="24"
   inkscape:export-ydpi="24">
  <metadata
     id="metadata23">
    <rdf:RDF>
      <cc:Work
         rdf:about="">
        <dc:format>image/svg+xml</dc:format>
        <dc:type
           rdf:resource="http://purl.org/dc/dcmitype/StillImage" />
        <dc:title></dc:title>
      </cc:Work>
    </rdf:RDF>
  </metadata>
  <defs
     id="defs21">
    <linearGradient
       id="linearGradient7422">
      <stop
         style="stop-color:#7c9fcf;stop-opacity:1"
         offset="0"
         id="stop7424" />
      <stop
         id="stop5348"
         offset="0.5"
         style="stop-color:#7c9ece;stop-opacity:1" />
      <stop
         id="stop7426"
         offset="1"
         style="stop-color:#7b9dcf;stop-opacity:1" />
    </linearGradient>
    <linearGradient
       id="linearGradient3369">
      <stop
         id="stop3372"
         offset="0"
         style="stop-color:#ffffff;stop-opacity:1;" />
      <stop
         style="stop-color:#ffffff;stop-opacity:1;"
         offset="0.46428573"
         id="stop3374" />
      <stop
         style="stop-color:#f1f1f1;stop-opacity:1;"
         offset="0.78125"
         id="stop3376" />
      <stop
         id="stop3378"
         offset="0.90625"
         style="stop-color:#eaeaea;stop-opacity:1;" />
      <stop
         id="stop3384"
         offset="1"
         style="stop-color:#dfdfdf;stop-opacity:1;" />
    </linearGradient>
    <linearGradient
       inkscape:collect="always"
       xlink:href="#linearGradient3369"
       id="linearGradient874"
       x1="67.661018"
       y1="128"
       x2="68.474579"
       y2="1.0847458"
       gradientUnits="userSpaceOnUse" />
    <linearGradient
       inkscape:collect="always"
       xlink:href="#linearGradient7422"
       id="linearGradient882"
       x1="4.0117188"
       y1="64"
       x2="123.98828"
       y2="64"
       gradientUnits="userSpaceOnUse" />
  </defs>
  <sodipodi:namedview
     pagecolor="#ffffff"
     bordercolor="#666666"
     borderopacity="1"
     objecttolerance="10"
     gridtolerance="10"
     guidetolerance="10"
     inkscape:pageopacity="0"
     inkscape:pageshadow="2"
     inkscape:window-width="1366"
     inkscape:window-height="706"
     id="namedview19"
     showgrid="true"
     inkscape:snap-global="true"
     inkscape:zoom="2.6074563"
     inkscape:cx="67.88356"
     inkscape:cy="46.617275"
     inkscape:window-x="0"
     inkscape:window-y="0"
     inkscape:window-maximized="1"
     inkscape:current-layer="svg17">
    <inkscape:grid
       type="xygrid"
       id="grid830"
       spacingx="4"
       spacingy="4"
       empspacing="1" />
  </sodipodi:namedview>
  <linearGradient
     id="a"
     gradientUnits="userSpaceOnUse"
     x1="12.43826596873"
     x2="-55.01607626578"
     y1="16.0318989829"
     y2="81.50080110547">
    <stop
       offset="0"
       stop-color="#f9f9fa"
       id="stop2" />
    <stop
       offset="1"
       stop-color="#f9f9fa"
       stop-opacity="0"
       id="stop4" />
  </linearGradient>
  <path
     sodipodi:type="inkscape:offset"
     inkscape:radius="3.9875944"
     inkscape:original="M 52 8 L 52 52 L 8 52 L 8 76 L 52 76 L 52 120 L 76 120 L 76 76 L 120 76 L 120 52 L 76 52 L 76 8 L 52 8 z "
     style="fill:url(#linearGradient882);fill-opacity:1.0;stroke:none;stroke-width:4;stroke-linecap:round;stroke-linejoin:bevel;stroke-opacity:0.73039198"
     id="path832"
     d="M 52,4.0117188 A 3.9879931,3.9879931 0 0 0 48.011719,8 V 48.011719 H 8 A 3.9879931,3.9879931 0 0 0 4.0117188,52 V 76 A 3.9879931,3.9879931 0 0 0 8,79.988281 H 48.011719 V 120 A 3.9879931,3.9879931 0 0 0 52,123.98828 H 76 A 3.9879931,3.9879931 0 0 0 79.988281,120 V 79.988281 H 120 A 3.9879931,3.9879931 0 0 0 123.98828,76 V 52 A 3.9879931,3.9879931 0 0 0 120,48.011719 H 79.988281 V 8 A 3.9879931,3.9879931 0 0 0 76,4.0117188 Z" />
  <path
     d="M 52,8 V 52 H 8 v 24 h 44 v 44 H 76 V 76 h 44 V 52 H 76 V 8 Z"
     style="fill:url(#linearGradient874);fill-opacity:1;stroke:none;stroke-width:4;stroke-linecap:round;stroke-linejoin:bevel;stroke-opacity:0.73039198"
     id="path7"
     inkscape:connector-curvature="0"
     sodipodi:nodetypes="ccccccccccccc" />
</svg>
